**kern	**silbe	**harmony	**chordsym	**phrase	**timestamp	**leadinstrument
*ICvox	*	*M4/4	*M4/4	*	*	*
*	*	*d:	*d:	*d:	*d:	*d:
=1	=1	=1	=1	=1	=1	=1
*d:	*	*	*	*	*	*
*M4/4	*	*	*	*	*	*
*clefC3	*	*	*	*	*	*
1r	.	1r;	r	.	0	r
=2	=2	=2	=2	=2	=2	=2
*	*	*>A_intro	*>A_intro	*>A_intro	*>A_intro	*>A_intro
2r	.	1Dmm	D:min7 (D F A C)	newline	0.232	r
8r	.	.	.	.	.	.
8f	Hah!	.	.	.	.	.
4r	.	.	.	.	.	.
=3	=3	=3	=3	=3	=3	=3
1r	.	1Dmm	D:min7 (D F A C)	.	.	r
=4	=4	=4	=4	=4	=4	=4
2r	.	1Dmm	D:min7 (D F A C)	.	.	r
4r	.	.	.	.	.	.
8cc	I	.	.	.	.	.
8cc	don't	.	.	.	.	.
=5	=5	=5	=5	=5	=5	=5
8a-	care,	1Dmm	D:min7 (D F A C)	.	.	r
16g	_	.	.	.	.	.
16f	_	.	.	.	.	.
4r	_	.	.	.	.	.
4r	.	.	.	.	.	.
8r	.	.	.	.	.	.
8g	hah!	.	.	.	.	.
=6	=6	=6	=6	=6	=6	=6
*	*	*>B_verse	*>B_verse	*>B_verse	*>B_verse	*>B_verse
8r	_	1Dmm	D:min7 (D F A C)	newline	8.957	voice
8c	Uh!	.	.	.	.	.
4r	_	.	.	.	.	.
8r	.	.	.	.	.	.
8c	A-	.	.	.	.	.
8d	-bout	.	.	.	.	.
8c	your	.	.	.	.	.
=7	=7	=7	=7	=7	=7	=7
16f	past	1Dmm	D:min7 (D F A C)	.	.	voice
[8.c	_	.	.	.	.	.
8.c]	_	.	.	.	.	.
16r	.	.	.	.	.	.
2r	.	.	.	.	.	.
=8	=8	=8	=8	=8	=8	=8
2r	.	1Dmm	D:min7 (D F A C)	.	.	voice
4r	.	.	.	.	.	.
8cc	I	.	.	.	.	.
[8cc	just	.	.	.	.	.
=9	=9	=9	=9	=9	=9	=9
8cc]	want,	1Dmm	D:min7 (D F A C)	.	.	voice
8gq	_	.	.	.	.	.
8a-	_	.	.	.	.	.
16g	_	.	.	.	.	.
[8.f	_	.	.	.	.	.
8f]	_	.	.	.	.	.
16g	_	.	.	.	.	.
16a	_	.	.	.	.	.
4r	_	.	.	.	.	.
=10	=10	=10	=10	=10	=10	=10
8r	.	1Dmm	D:min7 (D F A C)	newline	17.582	voice
16a	Heaugh!	.	.	.	.	.
16f	_	.	.	.	.	.
4r	_	.	.	.	.	.
8r	.	.	.	.	.	.
8d	Our	.	.	.	.	.
8e	love	.	.	.	.	.
8c	to	.	.	.	.	.
=11	=11	=11	=11	=11	=11	=11
8B	last	1Dmm	D:min7 (D F A C)	.	.	voice
4A	_	.	.	.	.	.
8r	.	.	.	.	.	.
8r	.	.	.	.	.	.
8a-	Uh!	.	.	.	.	.
4r	_	.	.	.	.	.
=12	=12	=12	=12	=12	=12	=12
2r	.	1Dmm	D:min7 (D F A C)	.	.	voice
4r	.	.	.	.	.	.
8cc	I	.	.	.	.	.
8cc	don't	.	.	.	.	.
=13	=13	=13	=13	=13	=13	=13
8gq	_	.	.	.	.	.
4a-	care,	1Dmm	D:min7 (D F A C)	.	.	voice
16g	_	.	.	.	.	.
16f	_	.	.	.	.	.
8r	_	.	.	.	.	.
8r	.	.	.	.	.	.
8fq	_	.	.	.	.	.
[8g	dar	.	.	.	.	.
16g]	_	.	.	.	.	.
16a	ling,	.	.	.	.	.
8r	_	.	.	.	.	.
=14	=14	=14	=14	=14	=14	=14
2r	.	1Dmm	D:min7 (D F A C)	newline	26.168	voice
8r	.	.	.	.	.	.
8c	a-	.	.	.	.	.
8d	-bout	.	.	.	.	.
8c	your	.	.	.	.	.
=15	=15	=15	=15	=15	=15	=15
8r	.	1Dmm	D:min7 (D F A C)	.	.	voice
4f	faults!	.	.	.	.	.
8r	_	.	.	.	.	.
8r	.	.	.	.	.	.
8ff	Hah!	.	.	.	.	.
8r	_	.	.	.	.	.
8d	Uh!	.	.	.	.	.
=16	=16	=16	=16	=16	=16	=16
2r	_	1Dmm	D:min7 (D F A C)	.	.	voice
4r	.	.	.	.	.	.
8cc	I	.	.	.	.	.
[8cc	just	.	.	.	.	.
=17	=17	=17	=17	=17	=17	=17
8cc]	_	1Dmm	D:min7 (D F A C)	.	.	voice
8gq	_	.	.	.	.	.
8a-	want,	.	.	.	.	.
12g	_	.	.	.	.	.
12f	_	.	.	.	.	.
12g	_	.	.	.	.	.
8a	_	.	.	.	.	.
8r	_	.	.	.	.	.
4r	.	.	.	.	.	.
=18	=18	=18	=18	=18	=18	=18
2r	.	1Dmm	D:min7 (D F A C)	newline	34.749	voice
8r	.	.	.	.	.	.
8c	to	.	.	.	.	.
8c	sa-	.	.	.	.	.
8c	-tis-	.	.	.	.	.
=19	=19	=19	=19	=19	=19	=19
8d	-fy	1Dmm	D:min7 (D F A C)	.	.	voice
8d	your	.	.	.	.	.
4e	pulse!	.	.	.	.	.
2r	_	.	.	.	.	.
=20	=20	=20	=20	=20	=20	=20
8r	.	1Dmm	D:min7 (D F A C)	.	.	voice
4.cc	Oh!	.	.	.	.	.
4.dd	_	.	.	.	.	.
8r	_	.	.	.	.	.
=21	=21	=21	=21	=21	=21	=21
1r	.	1Dmm	D:min7 (D F A C)	.	.	voice
=22	=22	=22	=22	=22	=22	=22
*	*	*>C_chorus	*>C_chorus	*>C_chorus	*>C_chorus	*>C_chorus
4r	.	1CMm	C:7 (C E G B-)	newline	43.297	voice
8r	.	.	.	.	.	.
8cc	When	.	.	.	.	.
8b-	you	.	.	.	.	.
8cc	kiss	.	.	.	.	.
8r	.	.	.	.	.	.
8b-q	_	.	.	.	.	.
[8cc	me!	.	.	.	.	.
=23	=23	=23	=23	=23	=23	=23
8cc]	_	1FMm	F:7 (F A C E-)	.	.	voice
16b-	_	.	.	.	.	.
16g	_	.	.	.	.	.
16f	_	.	.	.	.	.
16e-	_	.	.	.	.	.
8r	_	.	.	.	.	.
2r	.	.	.	.	.	.
=24	=24	=24	=24	=24	=24	=24
2r	.	1CMm	C:7 (C E G B-)	.	.	voice
8.r	.	.	.	.	.	.
[16cc	When	.	.	.	.	.
16cc]	_	.	.	.	.	.
8b-	you	.	.	.	.	.
[16cc	miss	.	.	.	.	.
=25	=25	=25	=25	=25	=25	=25
8cc]	_	1FMm	F:7 (F A C E-)	.	.	voice
16cc	me!	.	.	.	.	.
16dd	_	.	.	.	.	.
4r	_	.	.	.	.	.
2r	.	.	.	.	.	.
=26	=26	=26	=26	=26	=26	=26
2r	.	1CMm	C:7 (C E G B-)	newline	51.91	voice
4r	.	.	.	.	.	.
8r	.	.	.	.	.	.
8b-q	_	.	.	.	.	.
[8cc	Hold	.	.	.	.	.
=27	=27	=27	=27	=27	=27	=27
8cc]	_	1FMm	F:7 (F A C E-)	.	.	voice
8b-	my	.	.	.	.	.
8g	hand!	.	.	.	.	.
16f	_	.	.	.	.	.
[16e-	_	.	.	.	.	.
16e-]	_	.	.	.	.	.
16f	_	.	.	.	.	.
8g	_	.	.	.	.	.
4r	_	.	.	.	.	.
=28	=28	=28	=28	=28	=28	=28
2r	.	1CMm	C:7 (C E G B-)	.	.	voice
8r	.	.	.	.	.	.
8cc	Make	.	.	.	.	.
16b-	me	.	.	.	.	.
8.cc	un-	.	.	.	.	.
=29	=29	=29	=29	=29	=29	=29
8b-q	_	.	.	.	.	.
2cc	-der-	1FMm	F:7 (F A C E-)	.	.	voice
8b-	-stand!	.	.	.	.	.
8b-q	_	.	.	.	.	.
[8f	_	.	.	.	.	.
8f]	_	.	.	.	.	.
16f	_	.	.	.	.	.
16e-	_	.	.	.	.	.
=30	=30	=30	=30	=30	=30	=30
8c	_	1CMm	C:7 (C E G B-)	newline	60.468	voice
8r	_	.	.	.	.	.
4r	.	.	.	.	.	.
2r	.	.	.	.	.	.
=31	=31	=31	=31	=31	=31	=31
2r	.	1FMm	F:7 (F A C E-)	.	.	voice
8r	.	.	.	.	.	.
8b-	I	.	.	.	.	.
8cc	break	.	.	.	.	.
8cc	out!	.	.	.	.	.
=32	=32	=32	=32	=32	=32	=32
1r	.	1N	N	newline	64.789	voice
=33	=33	=33	=33	=33	=33	=33
4r	.	1GMm	G:7 (G B D F)	.	.	voice
8r	.	.	.	.	.	.
16cc	In	.	.	.	.	.
16b-	a	.	.	.	.	.
8r	.	.	.	.	.	.
4.cc	cold	.	.	.	.	.
=34	=34	=34	=34	=34	=34	=34
8cc	sweat!	1N	N	.	.	voice
8r	_	.	.	.	.	.
4r	.	.	.	.	.	.
2r	.	.	.	.	.	.
=35	=35	=35	=35	=35	=35	=35
2r	.	1GMm	G:9 (G B F A)	.	.	voice
8r	.	.	.	.	.	.
8cc	Ho!	.	.	.	.	.
8f	_	.	.	.	.	.
8r	_	.	.	.	.	.
=36	=36	=36	=36	=36	=36	=36
*	*	*>A_trans	*>A_trans	*>A_trans	*>A_trans	*>A_trans
2r	.	1DMm	D:maj6(b7,11) (D F# A B C G)	newline	72.967	voice
8r	.	.	.	.	.	.
8cc	Uh!	.	.	.	.	.
4r	.	.	.	.	.	.
=37	=37	=37	=37	=37	=37	=37
1r	.	1DMm	D:maj6(b7,11) (D F# A B C G)	.	.	voice
=38	=38	=38	=38	=38	=38	=38
2r	.	1DMm	D:maj6(b7,11) (D F# A B C G)	.	.	voice
8r	.	.	.	.	.	.
8dd	Oh!	.	.	.	.	.
4r	_	.	.	.	.	.
=39	=39	=39	=39	=39	=39	=39
2r	.	1DMm	D:maj6(b7,11) (D F# A B C G)	.	.	voice
4r	.	.	.	.	.	.
8cc	I	.	.	.	.	.
8cc	don't	.	.	.	.	.
=40	=40	=40	=40	=40	=40	=40
*	*	*>B_verse	*>B_verse	*>B_verse	*>B_verse	*>B_verse
8gq	_	.	.	.	.	.
8a-	care,	1Dmm	D:min7 (D F A C)	newline	81.603	voice
16g	_	.	.	.	.	.
16f	_	.	.	.	.	.
4r	_	.	.	.	.	.
2r	.	.	.	.	.	.
=41	=41	=41	=41	=41	=41	=41
2r	.	1Dmm	D:min7 (D F A C)	.	.	voice
8r	.	.	.	.	.	.
8c	a-	.	.	.	.	.
8d	-bout	.	.	.	.	.
[8d	your	.	.	.	.	.
=42	=42	=42	=42	=42	=42	=42
8d]	_	1Dmm	D:min7 (D F A C)	.	.	voice
4f	wants	.	.	.	.	.
8r	.	.	.	.	.	.
2r	.	.	.	.	.	.
=43	=43	=43	=43	=43	=43	=43
2r	.	1Dmm	D:min7 (D F A C)	.	.	voice
4r	.	.	.	.	.	.
8cc	I	.	.	.	.	.
8cc	just	.	.	.	.	.
=44	=44	=44	=44	=44	=44	=44
4a	w-	1Dmm	D:min7 (D F A C)	newline	90.266	voice
16cc	-wan-	.	.	.	.	.
16dd	-na,	.	.	.	.	.
8r	_	.	.	.	.	.
8r	.	.	.	.	.	.
8e	hah!	.	.	.	.	.
4r	.	.	.	.	.	.
=45	=45	=45	=45	=45	=45	=45
2r	.	1Dmm	D:min7 (D F A C)	.	.	voice
8r	.	.	.	.	.	.
8d	Tell	.	.	.	.	.
8B	you	.	.	.	.	.
8d	'bout	.	.	.	.	.
=46	=46	=46	=46	=46	=46	=46
8B	the	1Dmm	D:min7 (D F A C)	.	.	voice
4f	do's	.	.	.	.	.
8B	and	.	.	.	.	.
8B	don'ts!	.	.	.	.	.
8r	_	.	.	.	.	.
4r	.	.	.	.	.	.
=47	=47	=47	=47	=47	=47	=47
2r	.	1Dmm	D:min7 (D F A C)	.	.	voice
4r	.	.	.	.	.	.
16cc	I	.	.	.	.	.
8.cc	don't	.	.	.	.	.
=48	=48	=48	=48	=48	=48	=48
8gq	_	.	.	.	.	.
16a-	care,	1Dmm	D:min7 (D F A C)	newline	98.815	voice
16g	_	.	.	.	.	.
8r	_	.	.	.	.	.
4r	.	.	.	.	.	.
2r	.	.	.	.	.	.
=49	=49	=49	=49	=49	=49	=49
2r	.	1Dmm	D:min7 (D F A C)	.	.	voice
8r	.	.	.	.	.	.
8c	a-	.	.	.	.	.
8d	-bout	.	.	.	.	.
8c	the	.	.	.	.	.
=50	=50	=50	=50	=50	=50	=50
8f	way	1Dmm	D:min7 (D F A C)	.	.	voice
8g	you	.	.	.	.	.
8a	treat	.	.	.	.	.
16a	me	.	.	.	.	.
16g	_	.	.	.	.	.
8f	_	.	.	.	.	.
8fq	_	.	.	.	.	.
[8g	dar	.	.	.	.	.
16g]	_	.	.	.	.	.
8a	ling!	.	.	.	.	.
16r	_	.	.	.	.	.
=51	=51	=51	=51	=51	=51	=51
2r	.	1Dmm	D:min7 (D F A C)	.	.	voice
4r	.	.	.	.	.	.
8cc	I	.	.	.	.	.
8cc	just	.	.	.	.	.
=52	=52	=52	=52	=52	=52	=52
8gq	_	.	.	.	.	.
8a-	want,	1Dmm	D:min7 (D F A C)	newline	107.412	voice
16g	_	.	.	.	.	.
16f	_	.	.	.	.	.
4r	_	.	.	.	.	.
8r	.	.	.	.	.	.
8c	hah!	.	.	.	.	.
4r	.	.	.	.	.	.
=53	=53	=53	=53	=53	=53	=53
2r	.	1Dmm	D:min7 (D F A C)	.	.	voice
4r	.	.	.	.	.	.
8B	To	.	.	.	.	.
8d	un-	.	.	.	.	.
=54	=54	=54	=54	=54	=54	=54
8e	-der-	1Dmm	D:min7 (D F A C)	.	.	voice
8f	-stand	.	.	.	.	.
8d	_	.	.	.	.	.
[8d	me,	.	.	.	.	.
8d]	_	.	.	.	.	.
[8e	ho	.	.	.	.	.
16e]	_	.	.	.	.	.
8.B	ney!	.	.	.	.	.
=55	=55	=55	=55	=55	=55	=55
4r	_	1Dmm	D:min7 (D F A C)	.	.	voice
8r	.	.	.	.	.	.
8cc	Oh!	.	.	.	.	.
4.dd	_	.	.	.	.	.
8r	_	.	.	.	.	.
=56	=56	=56	=56	=56	=56	=56
*	*	*>C_chorus	*>C_chorus	*>C_chorus	*>C_chorus	*>C_chorus
1r	.	1CMm	C:7 (C E G B-)	newline	115.947	voice
=57	=57	=57	=57	=57	=57	=57
4r	.	1FMm	F:7 (F A C E-)	.	.	voice
8r	.	.	.	.	.	.
8cc	When	.	.	.	.	.
8b-	you	.	.	.	.	.
8cc	kiss	.	.	.	.	.
8r	.	.	.	.	.	.
8b-q	_	.	.	.	.	.
[8cc	me!	.	.	.	.	.
=58	=58	=58	=58	=58	=58	=58
2cc_	_	1CMm	C:7 (C E G B-)	.	.	voice
8cc]	_	.	.	.	.	.
16g-	_	.	.	.	.	.
16f	_	.	.	.	.	.
8f	_	.	.	.	.	.
8r	_	.	.	.	.	.
=59	=59	=59	=59	=59	=59	=59
2r	.	1FMm	F:7 (F A C E-)	.	.	voice
8r	.	.	.	.	.	.
8b-	When	.	.	.	.	.
8cc	you	.	.	.	.	.
[8ee-	miss	.	.	.	.	.
=60	=60	=60	=60	=60	=60	=60
8ee-]	_	1CMm	C:7 (C E G B-)	newline	124.49	voice
8b-	me!	.	.	.	.	.
4r	_	.	.	.	.	.
2r	.	.	.	.	.	.
=61	=61	=61	=61	=61	=61	=61
2r	.	1FMm	F:7 (F A C E-)	.	.	voice
16r	.	.	.	.	.	.
16f	You	.	.	.	.	.
[8dd	hold	.	.	.	.	.
16dd]	_	.	.	.	.	.
[8.cc	me	.	.	.	.	.
=62	=62	=62	=62	=62	=62	=62
8cc]	_	1CMm	C:7 (C E G B-)	.	.	voice
16b-	tight!	.	.	.	.	.
16g	_	.	.	.	.	.
16f	_	.	.	.	.	.
8e-	_	.	.	.	.	.
[16f	_	.	.	.	.	.
16f]	_	.	.	.	.	.
16e-	_	.	.	.	.	.
16g	_	.	.	.	.	.
[16g	_	.	.	.	.	.
16g]	_	.	.	.	.	.
8.r	_	.	.	.	.	.
=63	=63	=63	=63	=63	=63	=63
2r	.	1FMm	F:7 (F A C E-)	.	.	voice
8r	.	.	.	.	.	.
8cc	Make	.	.	.	.	.
16b-	ev	.	.	.	.	.
[8.cc	_	.	.	.	.	.
=64	=64	=64	=64	=64	=64	=64
2cc]	_	1CMm	C:7 (C E G B-)	newline	133.018	voice
8gg	'ry-	.	.	.	.	.
8f	-thing	.	.	.	.	.
16g	_	.	.	.	.	.
16f	_	.	.	.	.	.
16e-	al	.	.	.	.	.
[16f	_	.	.	.	.	.
=65	=65	=65	=65	=65	=65	=65
8f]	_	1FMm	F:7 (F A C E-)	.	.	voice
16e-	right!	.	.	.	.	.
16c	_	.	.	.	.	.
4r	_	.	.	.	.	.
8r	.	.	.	.	.	.
8a	I	.	.	.	.	.
8b-	break	.	.	.	.	.
8b-	out!	.	.	.	.	.
=66	=66	=66	=66	=66	=66	=66
1r	.	1N	N	newline	137.274	voice
=67	=67	=67	=67	=67	=67	=67
4r	.	1GMm	G:7 (G B D F)	.	.	voice
8r	.	.	.	.	.	.
16cc	In	.	.	.	.	.
16b-	a	.	.	.	.	.
8r	.	.	.	.	.	.
4.cc	cold	.	.	.	.	.
=68	=68	=68	=68	=68	=68	=68
8cc	sweat!	1N	N	.	.	voice
8r	_	.	.	.	.	.
4r	.	.	.	.	.	.
4r	.	.	.	.	.	.
8r	.	.	.	.	.	.
8a	Hah!	.	.	.	.	.
=69	=69	=69	=69	=69	=69	=69
1r	.	1GMm	G:9 (G B F A)	.	.	voice
*-	*-	*	*
=69	=69	=69	=69	=69
*>A_outro	*>A_outro	*>A_outro	*>A_outro	*>A_outro
1Dmm	D:min7 (D F A C)	newline	145.597	voice
=70	=70	=70	=70	=70
1Dmm	D:min7 (D F A C)	.	.	voice
=71	=71	=71	=71	=71
1Dmm	D:min7 (D F A C)	.	.	voice
=72	=72	=72	=72	=72
1Dmm	D:min7 (D F A C)	.	.	voice
=73	=73	=73	=73	=73
1Dmm	D:min7 (D F A C)	newline	154.277	saxophone
=74	=74	=74	=74	=74
1Dmm	D:min7 (D F A C)	.	.	saxophone
=75	=75	=75	=75	=75
1Dmm	D:min7 (D F A C)	.	.	saxophone
=76	=76	=76	=76	=76
1Dmm	D:min7 (D F A C)	.	.	saxophone
=77	=77	=77	=77	=77
*>_fadeout	*>_fadeout	*>_fadeout	*>_fadeout	*>_fadeout
1Dmm	D:min7 (D F A C)	newline	162.85	saxophone
=78	=78	=78	=78	=78
1Dmm	D:min7 (D F A C)	.	.	saxophone
=79	=79	=79	=79	=79
1Dmm	D:min7 (D F A C)	.	.	saxophone
=80	=80	=80	=80	=80
1Dmm	D:min7 (D F A C)	.	.	saxophone
1r;	r	.	170.318	r
1r;	r	.	171.938	r
*-	*-	*-	*-	*-
!!!BillboardChartDate: 1967/07/29
!!!BillboardPeak: 7
!!!BillboardWeeksOnChart: 12
!!!COC: James Brown
!!!ENC: Nathaniel Condit-Schultz
!!!EST: Awating manual error checking and editing.
!!!OTL: Cold Sweat - Part 1
!!!RDF**chordsym: original McGill chord annotation + (implied pitch class set, with bass pitch in first position)
!!!RDF**harmony: **recip + pitch class of root + harmonic quality
!!!RDF**leadinstrument: original McGill primary instrumentation annotation
!!!RDF**phrase: newline = linebreak in original McGill transcription
!!!RDF**timestamp: McGill audio timestamp in seconds
!!!RDT: 2017/01/12/
!!!SampleActualRank: 58
!!!SampleID#: 0079
!!!SampleTargetRank: 56
